X: 14213
T: Full Of Hope
R: jig
M: 6/8
K: Amajor
E|:ABA AFE|AaA gAe|f/g/ag fec|B/c/dc BAF|
ABA AFE|AaA gAe|f/g/af ecA|1 B>cB A2 E:|2 B>cB A2 A||
BAB cBA|B2 B cBA|FAF EFA|Bce fec|
BAB cBA|B2 B cBA|FAF EFA|B>cB A2 A||
BAB cBA|BAB cBA|FAF E2 E-|E2 f ecB|
AaA gAe|dc'd bda|f/g/ag fec|B3- B z z||

